build/web/dist/spark/icons/ProfileOutline.svg

<svg viewBox="0 0 24 24" xmlns="http://www.w3.org/2000/svg" data-title="ProfileOutline" fill="currentColor" stroke="none">
  <path fill-rule="evenodd" clip-rule="evenodd" d="M11.9998 5.37504C9.72108 5.37504 7.87478 7.22161 7.87478 9.5007C7.87478 11.7795 9.72149 13.625 11.9998 13.625C14.2781 13.625 16.1248 11.7795 16.1248 9.5007C16.1248 7.22161 14.2785 5.37504 11.9998 5.37504ZM9.87478 9.5007C9.87478 8.32591 10.8259 7.37504 11.9998 7.37504C13.1736 7.37504 14.1248 8.32591 14.1248 9.5007C14.1248 10.6744 13.174 11.625 11.9998 11.625C10.8255 11.625 9.87478 10.6744 9.87478 9.5007Z"/>
  <path fill-rule="evenodd" clip-rule="evenodd" d="M4.9523 19.0941C3.12896 17.2826 2 14.7731 2 12C2 6.47746 6.47746 2 12 2C17.5225 2 22 6.47746 22 12C22 14.7731 20.871 17.2828 19.0476 19.0942L19.0612 19.1199L18.6712 19.4494C16.9015 21.0354 14.5633 22 12 22C12 22 12 22 12 22C11.9353 22 11.8707 21.9994 11.8063 21.9982C9.3205 21.9509 7.0566 20.9965 5.3319 19.4522L4.93864 19.1199L4.9523 19.0941ZM4 12C4 7.58203 7.58203 4 12 4C16.418 4 20 7.58203 20 12C20 14.0425 19.2344 15.9064 17.9745 17.3202C16.5851 15.5617 14.3994 14.4792 11.9999 14.4792C9.60045 14.4792 7.41481 15.5616 6.02543 17.3201C4.76559 15.9063 4 14.0425 4 12ZM11.6539 19.9926C11.7601 19.9972 11.8669 19.9996 11.9741 20C11.9827 20 11.9913 20 11.9999 20C13.6543 20 15.1881 19.497 16.4634 18.6356C15.462 17.3201 13.8331 16.4792 11.9999 16.4792C10.1667 16.4792 8.53777 17.3201 7.5364 18.6356C8.72235 19.4366 10.1319 19.9278 11.6539 19.9926Z"/>
</svg>

<svg viewBox="0 0 24 24" xmlns="http://www.w3.org/2000/svg" data-title="ProfileOutline" fill="currentColor" stroke="none">
  <path d="m12,5.38c-2.28,0-4.13,1.85-4.13,4.13s1.85,4.12,4.13,4.12,4.12-1.85,4.12-4.12-1.85-4.13-4.12-4.13Zm-2.13,4.13c0-1.17.95-2.13,2.13-2.13s2.12.95,2.12,2.13-.95,2.12-2.12,2.12-2.13-.95-2.13-2.12Z"/>
  <path d="m4.95,19.09c-1.82-1.81-2.95-4.32-2.95-7.09C2,6.48,6.48,2,12,2s10,4.48,10,10c0,2.77-1.13,5.28-2.95,7.09v.03s-.38.33-.38.33c-1.77,1.59-4.11,2.55-6.67,2.55h0c-.06,0-.13,0-.19,0-2.49-.05-4.75-1-6.47-2.55l-.39-.33v-.03Zm-.95-7.09c0-4.42,3.58-8,8-8s8,3.58,8,8c0,2.04-.77,3.91-2.03,5.32-1.39-1.76-3.58-2.84-5.97-2.84s-4.59,1.08-5.97,2.84c-1.26-1.41-2.03-3.28-2.03-5.32Zm7.65,7.99c.11,0,.21,0,.32,0h.03c1.65,0,3.19-.5,4.46-1.36-1-1.32-2.63-2.16-4.46-2.16s-3.46.84-4.46,2.16c1.19.8,2.6,1.29,4.12,1.36Z"/>
</svg>
